src/images/documents/svg/ppt.svg

<svg width="80" height="120" viewBox="0 0 80 120" fill="none" xmlns="http://www.w3.org/2000/svg">
<path d="M1.00073 119V1H59.5865L79.0007 20.4142V119H1.00073Z" fill="white" stroke="#0065BD" stroke-width="2"/>
<path d="M80.001 20L60.001 0V20H80.001Z" fill="#0065BD"/>
<rect x="10.0002" y="28" width="60" height="27" fill="#0065BD"/>
<path d="M29.2507 43.5652H26.0806V41.5657H29.2507C29.7406 41.5657 30.1394 41.4859 30.447 41.3264C30.7546 41.1612 30.9797 40.9333 31.1221 40.6428C31.2645 40.3523 31.3357 40.0247 31.3357 39.6602C31.3357 39.2899 31.2645 38.9452 31.1221 38.6262C30.9797 38.3072 30.7546 38.0509 30.447 37.8572C30.1394 37.6635 29.7406 37.5667 29.2507 37.5667H26.9692V48H24.4058V35.5586H29.2507C30.2249 35.5586 31.0594 35.7352 31.7544 36.0884C32.4551 36.4359 32.9906 36.9172 33.3608 37.5325C33.7311 38.1477 33.9163 38.8512 33.9163 39.6431C33.9163 40.4463 33.7311 41.1413 33.3608 41.728C32.9906 42.3148 32.4551 42.7677 31.7544 43.0867C31.0594 43.4057 30.2249 43.5652 29.2507 43.5652ZM40.53 43.5652H37.3599V41.5657H40.53C41.0199 41.5657 41.4187 41.4859 41.7263 41.3264C42.0339 41.1612 42.259 40.9333 42.4014 40.6428C42.5438 40.3523 42.615 40.0247 42.615 39.6602C42.615 39.2899 42.5438 38.9452 42.4014 38.6262C42.259 38.3072 42.0339 38.0509 41.7263 37.8572C41.4187 37.6635 41.0199 37.5667 40.53 37.5667H38.2485V48H35.6851V35.5586H40.53C41.5042 35.5586 42.3387 35.7352 43.0337 36.0884C43.7344 36.4359 44.2699 36.9172 44.6401 37.5325C45.0104 38.1477 45.1956 38.8512 45.1956 39.6431C45.1956 40.4463 45.0104 41.1413 44.6401 41.728C44.2699 42.3148 43.7344 42.7677 43.0337 43.0867C42.3387 43.4057 41.5042 43.5652 40.53 43.5652ZM52.5271 35.5586V48H49.9722V35.5586H52.5271ZM56.3552 35.5586V37.5667H46.2039V35.5586H56.3552Z" fill="white"/>
<path d="M58.0338 83.4836C58.0338 87.2447 56.9185 90.9213 54.8289 94.0486C52.7394 97.1758 49.7694 99.6132 46.2946 101.052C42.8198 102.492 38.9963 102.868 35.3075 102.135C31.6186 101.401 28.2302 99.5897 25.5708 96.9303C22.9113 94.2708 21.1001 90.8824 20.3664 87.1935C19.6326 83.5047 20.0092 79.6812 21.4485 76.2064C22.8878 72.7316 25.3252 69.7616 28.4524 67.6721C31.5797 65.5825 35.2563 64.4672 39.0174 64.4672V83.4836H58.0338Z" fill="#0065BD"/>
<path d="M40.9849 62.5C43.4821 62.5 45.9549 62.9919 48.2621 63.9476C50.5693 64.9032 52.6656 66.304 54.4315 68.0698C56.1973 69.8356 57.5981 71.932 58.5537 74.2392C59.5094 76.5463 60.0013 79.0191 60.0013 81.5164L40.9849 81.5164L40.9849 62.5Z" fill="#0065BD"/>
</svg>

<svg height="120" viewBox="0 0 80 120" width="80" xmlns="http://www.w3.org/2000/svg"><path d="m1 119v-118h58.59l19.41 19.41v98.59z" fill="#fff" stroke="#cb4e0b" stroke-width="2"/><path d="m80 20-20-20v20z" fill="#cb4e0b"/><path d="m10 28h60v27h-60z" fill="#cb4e0b"/><path d="m29.25 43.57h-3.17v-2h3.17c.49 0 .89-.08 1.2-.24.31-.17.53-.39.67-.68s.21-.62.21-.98-.07-.71-.21-1.03-.37-.58-.67-.77-.71-.29-1.2-.29h-2.28v10.43h-2.56v-12.44h4.84c.97 0 1.81.18 2.5.53.7.35 1.24.83 1.61 1.44.37.62.56 1.32.56 2.11s-.19 1.5-.56 2.08c-.37.59-.91 1.04-1.61 1.36-.69.32-1.53.48-2.5.48zm11.28 0h-3.17v-2h3.17c.49 0 .89-.08 1.2-.24.31-.17.53-.39.67-.68s.21-.62.21-.98-.07-.71-.21-1.03-.37-.58-.67-.77c-.31-.19-.71-.29-1.2-.29h-2.28v10.43h-2.56v-12.44h4.85c.97 0 1.81.18 2.5.53.7.35 1.24.83 1.61 1.44.37.62.56 1.32.56 2.11s-.19 1.5-.56 2.08c-.37.59-.91 1.04-1.61 1.36-.69.32-1.53.48-2.5.48zm12-8.01v12.44h-2.56v-12.44zm3.82 0v2.01h-10.15v-2.01z" fill="#fff"/><g fill="#cb4e0b"><path d="m58.03 83.48c0 3.76-1.12 7.44-3.2 10.56-2.09 3.13-5.06 5.56-8.53 7s-7.3 1.81-10.99 1.08-7.08-2.55-9.74-5.2-4.47-6.05-5.2-9.74-.36-7.51 1.08-10.99c1.44-3.47 3.88-6.44 7-8.53 3.13-2.09 6.8-3.2 10.56-3.2v19.02z"/><path d="m40.98 62.5c2.5 0 4.97.49 7.28 1.45s4.4 2.36 6.17 4.12c1.77 1.77 3.17 3.86 4.12 6.17.96 2.31 1.45 4.78 1.45 7.28h-19.02z"/></g></svg>
